app/assets/images/icons/active/cc.svg

<svg width="32" height="232" viewBox="0 0 32 232" xmlns="http://www.w3.org/2000/svg" xmlns:sketch="http://www.bohemiancoding.com/sketch/ns"><title>cc</title><g sketch:type="MSPage" fill="none"><path d="M15.971 120c4.478 0 8.287 1.562 11.428 4.686 1.505 1.505 2.647 3.224 3.431 5.158.778 1.934 1.17 3.988 1.17 6.156 0 2.191-.388 4.242-1.158 6.158-.769 1.915-1.911 3.606-3.416 5.069-1.562 1.546-3.331 2.728-5.314 3.547-1.978.817-4.028 1.226-6.141 1.226-2.113 0-4.139-.404-6.071-1.215-1.934-.808-3.667-1.98-5.198-3.512-1.533-1.535-2.702-3.262-3.5-5.184-.803-1.927-1.202-3.956-1.202-6.089 0-2.112.404-4.148 1.214-6.097.808-1.953 1.988-3.701 3.529-5.245 3.05-3.105 6.79-4.658 11.228-4.658zm.057 2.888c-3.656 0-6.732 1.276-9.23 3.828-1.252 1.274-2.221 2.707-2.899 4.302-.675 1.586-1.01 3.252-1.01 4.982 0 1.716.335 3.367 1.01 4.959.678 1.589 1.647 3.009 2.899 4.257 1.258 1.248 2.679 2.198 4.258 2.857 1.583.654 3.24.984 4.972.984 1.715 0 3.376-.332 4.989-1 1.606-.665 3.06-1.629 4.354-2.884 2.494-2.439 3.741-5.497 3.741-9.173 0-1.771-.32-3.447-.97-5.027-.647-1.578-1.591-2.991-2.828-4.229-2.573-2.571-5.668-3.856-9.286-3.856zm-.201 10.456l-2.142 1.115c-.229-.477-.512-.807-.842-1-.332-.19-.641-.286-.927-.286-1.431 0-2.146.94-2.146 2.827 0 .856.182 1.542.545 2.057.36.516.893.775 1.601.775.93 0 1.588-.461 1.971-1.371l1.971 1c-.42.778-1 1.391-1.746 1.837-.74.45-1.561.673-2.455.673-1.427 0-2.58-.438-3.455-1.313-.877-.876-1.315-2.095-1.315-3.658 0-1.523.44-2.731 1.328-3.629.885-.894 2.003-1.341 3.358-1.341 1.977 0 3.399.771 4.254 2.314zm9.229 0l-2.113 1.115c-.23-.477-.511-.807-.843-1-.333-.19-.651-.286-.958-.286-1.429 0-2.141.94-2.141 2.827 0 .856.179 1.542.545 2.057.358.516.892.775 1.596.775.935 0 1.591-.461 1.97-1.371l2 1c-.438.778-1.028 1.391-1.771 1.837-.741.45-1.549.673-2.425.673-1.45 0-2.607-.438-3.473-1.313-.866-.876-1.302-2.095-1.302-3.658 0-1.523.444-2.731 1.33-3.629.887-.894 2.006-1.341 3.359-1.341 1.978 0 3.388.771 4.226 2.314zm0 0" fill="#206FAC" sketch:type="MSShapeGroup"/><path d="M15.971 80c4.478 0 8.287 1.562 11.428 4.686 1.505 1.505 2.647 3.224 3.431 5.158.778 1.934 1.17 3.988 1.17 6.156 0 2.191-.388 4.242-1.158 6.158-.769 1.915-1.911 3.606-3.416 5.069-1.562 1.546-3.331 2.728-5.314 3.547-1.978.817-4.028 1.226-6.141 1.226-2.113 0-4.139-.404-6.071-1.215-1.934-.808-3.667-1.98-5.198-3.512-1.533-1.535-2.702-3.262-3.5-5.184-.803-1.927-1.202-3.956-1.202-6.089 0-2.112.404-4.148 1.214-6.097.808-1.953 1.988-3.701 3.529-5.245 3.05-3.105 6.79-4.658 11.228-4.658zm.057 2.888c-3.656 0-6.732 1.276-9.23 3.828-1.252 1.274-2.221 2.707-2.899 4.302-.675 1.586-1.01 3.252-1.01 4.982 0 1.716.335 3.367 1.01 4.959.678 1.589 1.647 3.009 2.899 4.257 1.258 1.248 2.679 2.198 4.258 2.857 1.583.654 3.24.984 4.972.984 1.715 0 3.376-.332 4.989-1 1.606-.665 3.06-1.629 4.354-2.884 2.494-2.439 3.741-5.497 3.741-9.173 0-1.771-.32-3.447-.97-5.027-.647-1.578-1.591-2.991-2.828-4.229-2.573-2.571-5.668-3.856-9.286-3.856zm-.201 10.456l-2.142 1.115c-.229-.477-.512-.807-.842-1-.332-.19-.641-.286-.927-.286-1.431 0-2.146.94-2.146 2.827 0 .856.182 1.542.545 2.057.36.516.893.775 1.601.775.93 0 1.588-.461 1.971-1.371l1.971 1c-.42.778-1 1.391-1.746 1.837-.74.45-1.561.673-2.455.673-1.427 0-2.58-.438-3.455-1.313-.877-.876-1.315-2.095-1.315-3.658 0-1.523.44-2.731 1.328-3.629.885-.894 2.003-1.341 3.358-1.341 1.977 0 3.399.771 4.254 2.314zm9.229 0l-2.113 1.115c-.23-.477-.511-.807-.843-1-.333-.19-.651-.286-.958-.286-1.429 0-2.141.94-2.141 2.827 0 .856.179 1.542.545 2.057.358.516.892.775 1.596.775.935 0 1.591-.461 1.97-1.371l2 1c-.438.778-1.028 1.391-1.771 1.837-.741.45-1.549.673-2.425.673-1.45 0-2.607-.438-3.473-1.313-.866-.876-1.302-2.095-1.302-3.658 0-1.523.444-2.731 1.33-3.629.887-.894 2.006-1.341 3.359-1.341 1.978 0 3.388.771 4.226 2.314zm0 0" fill="#fff" sketch:type="MSShapeGroup"/><path d="M15.971 40c4.478 0 8.287 1.562 11.428 4.686 1.505 1.505 2.647 3.224 3.431 5.158.778 1.934 1.17 3.988 1.17 6.156 0 2.191-.388 4.242-1.158 6.158-.769 1.915-1.911 3.606-3.416 5.069-1.562 1.546-3.331 2.728-5.314 3.547-1.978.817-4.028 1.226-6.141 1.226-2.113 0-4.139-.404-6.071-1.215-1.934-.808-3.667-1.98-5.198-3.512-1.533-1.535-2.702-3.262-3.5-5.184-.803-1.927-1.202-3.956-1.202-6.089 0-2.112.404-4.148 1.214-6.097.808-1.953 1.988-3.701 3.529-5.245 3.05-3.105 6.79-4.658 11.228-4.658zm.057 2.888c-3.656 0-6.732 1.276-9.23 3.828-1.252 1.274-2.221 2.707-2.899 4.302-.675 1.586-1.01 3.252-1.01 4.982 0 1.716.335 3.367 1.01 4.959.678 1.589 1.647 3.009 2.899 4.257 1.258 1.248 2.679 2.198 4.258 2.857 1.583.654 3.24.984 4.972.984 1.715 0 3.376-.332 4.989-1 1.606-.665 3.06-1.629 4.354-2.884 2.494-2.439 3.741-5.497 3.741-9.173 0-1.771-.32-3.447-.97-5.027-.647-1.578-1.591-2.991-2.828-4.229-2.573-2.571-5.668-3.856-9.286-3.856zm-.201 10.456l-2.142 1.115c-.229-.477-.512-.807-.842-1-.332-.19-.641-.286-.927-.286-1.431 0-2.146.94-2.146 2.827 0 .856.182 1.542.545 2.057.36.516.893.775 1.601.775.93 0 1.588-.461 1.971-1.371l1.971 1c-.42.778-1 1.391-1.746 1.837-.74.45-1.561.673-2.455.673-1.427 0-2.58-.438-3.455-1.313-.877-.876-1.315-2.095-1.315-3.658 0-1.523.44-2.731 1.328-3.629.885-.894 2.003-1.341 3.358-1.341 1.977 0 3.399.771 4.254 2.314zm9.229 0l-2.113 1.115c-.23-.477-.511-.807-.843-1-.333-.19-.651-.286-.958-.286-1.429 0-2.141.94-2.141 2.827 0 .856.179 1.542.545 2.057.358.516.892.775 1.596.775.935 0 1.591-.461 1.97-1.371l2 1c-.438.778-1.028 1.391-1.771 1.837-.741.45-1.549.673-2.425.673-1.45 0-2.607-.438-3.473-1.313-.866-.876-1.302-2.095-1.302-3.658 0-1.523.444-2.731 1.33-3.629.887-.894 2.006-1.341 3.359-1.341 1.978 0 3.388.771 4.226 2.314zm0 0" fill="#67737B" sketch:type="MSShapeGroup"/><path d="M15.971 0c4.478 0 8.287 1.562 11.428 4.686 1.505 1.505 2.647 3.224 3.431 5.158.778 1.934 1.17 3.988 1.17 6.156 0 2.191-.388 4.242-1.158 6.158-.769 1.915-1.911 3.606-3.416 5.069-1.562 1.546-3.331 2.728-5.314 3.547-1.978.817-4.028 1.226-6.141 1.226-2.113 0-4.139-.404-6.071-1.215-1.934-.808-3.667-1.98-5.198-3.512-1.533-1.535-2.702-3.262-3.5-5.184-.803-1.927-1.202-3.956-1.202-6.089 0-2.112.404-4.148 1.214-6.097.808-1.953 1.988-3.701 3.529-5.245 3.05-3.105 6.79-4.658 11.228-4.658zm.057 2.888c-3.656 0-6.732 1.276-9.23 3.828-1.252 1.274-2.221 2.707-2.899 4.302-.675 1.586-1.01 3.252-1.01 4.982 0 1.716.335 3.367 1.01 4.959.678 1.589 1.647 3.009 2.899 4.257 1.258 1.248 2.679 2.198 4.258 2.857 1.583.654 3.24.984 4.972.984 1.715 0 3.376-.332 4.989-1 1.606-.665 3.06-1.629 4.354-2.884 2.494-2.439 3.741-5.497 3.741-9.173 0-1.771-.32-3.447-.97-5.027-.647-1.578-1.591-2.991-2.828-4.229-2.573-2.571-5.668-3.856-9.286-3.856zm-.201 10.456l-2.142 1.115c-.229-.477-.512-.807-.842-1-.332-.19-.641-.286-.927-.286-1.431 0-2.146.94-2.146 2.827 0 .856.182 1.542.545 2.057.36.516.893.775 1.601.775.93 0 1.588-.461 1.971-1.371l1.971 1c-.42.778-1 1.391-1.746 1.837-.74.45-1.561.673-2.455.673-1.427 0-2.58-.438-3.455-1.313-.877-.876-1.315-2.095-1.315-3.658 0-1.523.44-2.731 1.328-3.629.885-.894 2.003-1.341 3.358-1.341 1.977 0 3.399.771 4.254 2.314zm9.229 0l-2.113 1.115c-.23-.477-.511-.807-.843-1-.333-.19-.651-.286-.958-.286-1.429 0-2.141.94-2.141 2.827 0 .856.179 1.542.545 2.057.358.516.892.775 1.596.775.935 0 1.591-.461 1.97-1.371l2 1c-.438.778-1.028 1.391-1.771 1.837-.741.45-1.549.673-2.425.673-1.45 0-2.607-.438-3.473-1.313-.866-.876-1.302-2.095-1.302-3.658 0-1.523.444-2.731 1.33-3.629.887-.894 2.006-1.341 3.359-1.341 1.978 0 3.388.771 4.226 2.314zm0 0" fill="#3B444F" sketch:type="MSShapeGroup"/></g></svg>

<?xml version="1.0" encoding="UTF-8" standalone="no"?>
<svg width="32px" height="232px" viewBox="0 0 32 232" version="1.1" xmlns="http://www.w3.org/2000/svg" xmlns:xlink="http://www.w3.org/1999/xlink" xmlns:sketch="http://www.bohemiancoding.com/sketch/ns">
    <title>cc</title>
    <description>Created with Sketch (http://www.bohemiancoding.com/sketch)</description>
    <defs></defs>
    <g id="Creative-commons" stroke="none" stroke-width="1" fill="none" fill-rule="evenodd" sketch:type="MSPage">
        <path d="M15.971,120 C20.449,120 24.258,121.562 27.399,124.686 C28.904,126.191 30.046,127.91 30.83,129.844 C31.608,131.778 32,133.832 32,136 C32,138.191 31.612,140.242 30.842,142.158 C30.073,144.073 28.931,145.764 27.426,147.227 C25.864,148.773 24.095,149.955 22.112,150.774 C20.134,151.591 18.084,152 15.971,152 C13.858,152 11.832,151.596 9.9,150.785 C7.966,149.977 6.233,148.805 4.702,147.273 C3.169,145.738 2,144.011 1.202,142.089 C0.399,140.162 0,138.133 0,136 C0,133.888 0.404,131.852 1.214,129.903 C2.022,127.95 3.202,126.202 4.743,124.658 C7.793,121.553 11.533,120 15.971,120 C15.971,120 11.533,120 15.971,120 L15.971,120 L15.971,120 Z M16.028,122.888 C12.372,122.888 9.296,124.164 6.798,126.716 C5.546,127.99 4.577,129.423 3.899,131.018 C3.224,132.604 2.889,134.27 2.889,136 C2.889,137.716 3.224,139.367 3.899,140.959 C4.577,142.548 5.546,143.968 6.798,145.216 C8.056,146.464 9.477,147.414 11.056,148.073 C12.639,148.727 14.296,149.057 16.028,149.057 C17.743,149.057 19.404,148.725 21.017,148.057 C22.623,147.392 24.077,146.428 25.371,145.173 C27.865,142.734 29.112,139.676 29.112,136 C29.112,134.229 28.792,132.553 28.142,130.973 C27.495,129.395 26.551,127.982 25.314,126.744 C22.741,124.173 19.646,122.888 16.028,122.888 L16.028,122.888 L16.028,122.888 L16.028,122.888 Z M15.827,133.344 L13.685,134.459 C13.456,133.982 13.173,133.652 12.843,133.459 C12.511,133.269 12.202,133.173 11.916,133.173 C10.485,133.173 9.77,134.113 9.77,136 C9.77,136.856 9.952,137.542 10.315,138.057 C10.675,138.573 11.208,138.832 11.916,138.832 C12.846,138.832 13.504,138.371 13.887,137.461 L15.858,138.461 C15.438,139.239 14.858,139.852 14.112,140.298 C13.372,140.748 12.551,140.971 11.657,140.971 C10.23,140.971 9.077,140.533 8.202,139.658 C7.325,138.782 6.887,137.563 6.887,136 C6.887,134.477 7.327,133.269 8.215,132.371 C9.1,131.477 10.218,131.03 11.573,131.03 C13.55,131.03 14.972,131.801 15.827,133.344 C15.827,133.344 14.972,131.801 15.827,133.344 L15.827,133.344 L15.827,133.344 Z M25.056,133.344 L22.943,134.459 C22.713,133.982 22.432,133.652 22.1,133.459 C21.767,133.269 21.449,133.173 21.142,133.173 C19.713,133.173 19.001,134.113 19.001,136 C19.001,136.856 19.18,137.542 19.546,138.057 C19.904,138.573 20.438,138.832 21.142,138.832 C22.077,138.832 22.733,138.371 23.112,137.461 L25.112,138.461 C24.674,139.239 24.084,139.852 23.341,140.298 C22.6,140.748 21.792,140.971 20.916,140.971 C19.466,140.971 18.309,140.533 17.443,139.658 C16.577,138.782 16.141,137.563 16.141,136 C16.141,134.477 16.585,133.269 17.471,132.371 C18.358,131.477 19.477,131.03 20.83,131.03 C22.808,131.03 24.218,131.801 25.056,133.344 L25.056,133.344 Z M25.056,133.344" id="cc--lp--blue" fill="#206FAC" sketch:type="MSShapeGroup"></path>
        <path d="M15.971,80 C20.449,80 24.258,81.562 27.399,84.686 C28.904,86.191 30.046,87.91 30.83,89.844 C31.608,91.778 32,93.832 32,96 C32,98.191 31.612,100.242 30.842,102.158 C30.073,104.073 28.931,105.764 27.426,107.227 C25.864,108.773 24.095,109.955 22.112,110.774 C20.134,111.591 18.084,112 15.971,112 C13.858,112 11.832,111.596 9.9,110.785 C7.966,109.977 6.233,108.805 4.702,107.273 C3.169,105.738 2,104.011 1.202,102.089 C0.399,100.162 0,98.133 0,96 C0,93.888 0.404,91.852 1.214,89.903 C2.022,87.95 3.202,86.202 4.743,84.658 C7.793,81.553 11.533,80 15.971,80 C15.971,80 11.533,80 15.971,80 L15.971,80 L15.971,80 Z M16.028,82.888 C12.372,82.888 9.296,84.164 6.798,86.716 C5.546,87.99 4.577,89.423 3.899,91.018 C3.224,92.604 2.889,94.27 2.889,96 C2.889,97.716 3.224,99.367 3.899,100.959 C4.577,102.548 5.546,103.968 6.798,105.216 C8.056,106.464 9.477,107.414 11.056,108.073 C12.639,108.727 14.296,109.057 16.028,109.057 C17.743,109.057 19.404,108.725 21.017,108.057 C22.623,107.392 24.077,106.428 25.371,105.173 C27.865,102.734 29.112,99.676 29.112,96 C29.112,94.229 28.792,92.553 28.142,90.973 C27.495,89.395 26.551,87.982 25.314,86.744 C22.741,84.173 19.646,82.888 16.028,82.888 L16.028,82.888 L16.028,82.888 L16.028,82.888 Z M15.827,93.344 L13.685,94.459 C13.456,93.982 13.173,93.652 12.843,93.459 C12.511,93.269 12.202,93.173 11.916,93.173 C10.485,93.173 9.77,94.113 9.77,96 C9.77,96.856 9.952,97.542 10.315,98.057 C10.675,98.573 11.208,98.832 11.916,98.832 C12.846,98.832 13.504,98.371 13.887,97.461 L15.858,98.461 C15.438,99.239 14.858,99.852 14.112,100.298 C13.372,100.748 12.551,100.971 11.657,100.971 C10.23,100.971 9.077,100.533 8.202,99.658 C7.325,98.782 6.887,97.563 6.887,96 C6.887,94.477 7.327,93.269 8.215,92.371 C9.1,91.477 10.218,91.03 11.573,91.03 C13.55,91.03 14.972,91.801 15.827,93.344 C15.827,93.344 14.972,91.801 15.827,93.344 L15.827,93.344 L15.827,93.344 Z M25.056,93.344 L22.943,94.459 C22.713,93.982 22.432,93.652 22.1,93.459 C21.767,93.269 21.449,93.173 21.142,93.173 C19.713,93.173 19.001,94.113 19.001,96 C19.001,96.856 19.18,97.542 19.546,98.057 C19.904,98.573 20.438,98.832 21.142,98.832 C22.077,98.832 22.733,98.371 23.112,97.461 L25.112,98.461 C24.674,99.239 24.084,99.852 23.341,100.298 C22.6,100.748 21.792,100.971 20.916,100.971 C19.466,100.971 18.309,100.533 17.443,99.658 C16.577,98.782 16.141,97.563 16.141,96 C16.141,94.477 16.585,93.269 17.471,92.371 C18.358,91.477 19.477,91.03 20.83,91.03 C22.808,91.03 24.218,91.801 25.056,93.344 L25.056,93.344 Z M25.056,93.344" id="cc--white" fill="#FFFFFF" sketch:type="MSShapeGroup"></path>
        <path d="M15.971,40 C20.449,40 24.258,41.562 27.399,44.686 C28.904,46.191 30.046,47.91 30.83,49.844 C31.608,51.778 32,53.832 32,56 C32,58.191 31.612,60.242 30.842,62.158 C30.073,64.073 28.931,65.764 27.426,67.227 C25.864,68.773 24.095,69.955 22.112,70.774 C20.134,71.591 18.084,72 15.971,72 C13.858,72 11.832,71.596 9.9,70.785 C7.966,69.977 6.233,68.805 4.702,67.273 C3.169,65.738 2,64.011 1.202,62.089 C0.399,60.162 0,58.133 0,56 C0,53.888 0.404,51.852 1.214,49.903 C2.022,47.95 3.202,46.202 4.743,44.658 C7.793,41.553 11.533,40 15.971,40 C15.971,40 11.533,40 15.971,40 L15.971,40 L15.971,40 Z M16.028,42.888 C12.372,42.888 9.296,44.164 6.798,46.716 C5.546,47.99 4.577,49.423 3.899,51.018 C3.224,52.604 2.889,54.27 2.889,56 C2.889,57.716 3.224,59.367 3.899,60.959 C4.577,62.548 5.546,63.968 6.798,65.216 C8.056,66.464 9.477,67.414 11.056,68.073 C12.639,68.727 14.296,69.057 16.028,69.057 C17.743,69.057 19.404,68.725 21.017,68.057 C22.623,67.392 24.077,66.428 25.371,65.173 C27.865,62.734 29.112,59.676 29.112,56 C29.112,54.229 28.792,52.553 28.142,50.973 C27.495,49.395 26.551,47.982 25.314,46.744 C22.741,44.173 19.646,42.888 16.028,42.888 L16.028,42.888 L16.028,42.888 L16.028,42.888 Z M15.827,53.344 L13.685,54.459 C13.456,53.982 13.173,53.652 12.843,53.459 C12.511,53.269 12.202,53.173 11.916,53.173 C10.485,53.173 9.77,54.113 9.77,56 C9.77,56.856 9.952,57.542 10.315,58.057 C10.675,58.573 11.208,58.832 11.916,58.832 C12.846,58.832 13.504,58.371 13.887,57.461 L15.858,58.461 C15.438,59.239 14.858,59.852 14.112,60.298 C13.372,60.748 12.551,60.971 11.657,60.971 C10.23,60.971 9.077,60.533 8.202,59.658 C7.325,58.782 6.887,57.563 6.887,56 C6.887,54.477 7.327,53.269 8.215,52.371 C9.1,51.477 10.218,51.03 11.573,51.03 C13.55,51.03 14.972,51.801 15.827,53.344 C15.827,53.344 14.972,51.801 15.827,53.344 L15.827,53.344 L15.827,53.344 Z M25.056,53.344 L22.943,54.459 C22.713,53.982 22.432,53.652 22.1,53.459 C21.767,53.269 21.449,53.173 21.142,53.173 C19.713,53.173 19.001,54.113 19.001,56 C19.001,56.856 19.18,57.542 19.546,58.057 C19.904,58.573 20.438,58.832 21.142,58.832 C22.077,58.832 22.733,58.371 23.112,57.461 L25.112,58.461 C24.674,59.239 24.084,59.852 23.341,60.298 C22.6,60.748 21.792,60.971 20.916,60.971 C19.466,60.971 18.309,60.533 17.443,59.658 C16.577,58.782 16.141,57.563 16.141,56 C16.141,54.477 16.585,53.269 17.471,52.371 C18.358,51.477 19.477,51.03 20.83,51.03 C22.808,51.03 24.218,51.801 25.056,53.344 L25.056,53.344 Z M25.056,53.344" id="cc--light--grey" fill="#67737B" sketch:type="MSShapeGroup"></path>
        <path d="M15.971,0 C20.449,0 24.258,1.562 27.399,4.686 C28.904,6.191 30.046,7.91 30.83,9.844 C31.608,11.778 32,13.832 32,16 C32,18.191 31.612,20.242 30.842,22.158 C30.073,24.073 28.931,25.764 27.426,27.227 C25.864,28.773 24.095,29.955 22.112,30.774 C20.134,31.591 18.084,32 15.971,32 C13.858,32 11.832,31.596 9.9,30.785 C7.966,29.977 6.233,28.805 4.702,27.273 C3.169,25.738 2,24.011 1.202,22.089 C0.399,20.162 0,18.133 0,16 C0,13.888 0.404,11.852 1.214,9.903 C2.022,7.95 3.202,6.202 4.743,4.658 C7.793,1.553 11.533,0 15.971,0 C15.971,0 11.533,0 15.971,0 L15.971,0 L15.971,0 Z M16.028,2.888 C12.372,2.888 9.296,4.164 6.798,6.716 C5.546,7.99 4.577,9.423 3.899,11.018 C3.224,12.604 2.889,14.27 2.889,16 C2.889,17.716 3.224,19.367 3.899,20.959 C4.577,22.548 5.546,23.968 6.798,25.216 C8.056,26.464 9.477,27.414 11.056,28.073 C12.639,28.727 14.296,29.057 16.028,29.057 C17.743,29.057 19.404,28.725 21.017,28.057 C22.623,27.392 24.077,26.428 25.371,25.173 C27.865,22.734 29.112,19.676 29.112,16 C29.112,14.229 28.792,12.553 28.142,10.973 C27.495,9.395 26.551,7.982 25.314,6.744 C22.741,4.173 19.646,2.888 16.028,2.888 L16.028,2.888 L16.028,2.888 L16.028,2.888 Z M15.827,13.344 L13.685,14.459 C13.456,13.982 13.173,13.652 12.843,13.459 C12.511,13.269 12.202,13.173 11.916,13.173 C10.485,13.173 9.77,14.113 9.77,16 C9.77,16.856 9.952,17.542 10.315,18.057 C10.675,18.573 11.208,18.832 11.916,18.832 C12.846,18.832 13.504,18.371 13.887,17.461 L15.858,18.461 C15.438,19.239 14.858,19.852 14.112,20.298 C13.372,20.748 12.551,20.971 11.657,20.971 C10.23,20.971 9.077,20.533 8.202,19.658 C7.325,18.782 6.887,17.563 6.887,16 C6.887,14.477 7.327,13.269 8.215,12.371 C9.1,11.477 10.218,11.03 11.573,11.03 C13.55,11.03 14.972,11.801 15.827,13.344 C15.827,13.344 14.972,11.801 15.827,13.344 L15.827,13.344 L15.827,13.344 Z M25.056,13.344 L22.943,14.459 C22.713,13.982 22.432,13.652 22.1,13.459 C21.767,13.269 21.449,13.173 21.142,13.173 C19.713,13.173 19.001,14.113 19.001,16 C19.001,16.856 19.18,17.542 19.546,18.057 C19.904,18.573 20.438,18.832 21.142,18.832 C22.077,18.832 22.733,18.371 23.112,17.461 L25.112,18.461 C24.674,19.239 24.084,19.852 23.341,20.298 C22.6,20.748 21.792,20.971 20.916,20.971 C19.466,20.971 18.309,20.533 17.443,19.658 C16.577,18.782 16.141,17.563 16.141,16 C16.141,14.477 16.585,13.269 17.471,12.371 C18.358,11.477 19.477,11.03 20.83,11.03 C22.808,11.03 24.218,11.801 25.056,13.344 L25.056,13.344 Z M25.056,13.344" id="cc--dark--grey" fill="#3B444F" sketch:type="MSShapeGroup"></path>
    </g>
</svg>
